svgs/solid/calendar-circle-user.svg

<svg xmlns="http://www.w3.org/2000/svg" viewBox="0 0 576 512"><!--! Font Awesome Pro 6.2.0 by @fontawesome - https://fontawesome.com License - https://fontawesome.com/license (Commercial License) Copyright 2022 Fonticons, Inc. --><path d="M96 32c0-17.7 14.3-32 32-32s32 14.3 32 32V64H288V32c0-17.7 14.3-32 32-32s32 14.3 32 32V64h48c26.5 0 48 21.5 48 48v48H0V112C0 85.5 21.5 64 48 64H96V32zM416 192.7c-89.7 8.1-160 83.5-160 175.3c0 59.5 29.6 112.1 74.8 144H48c-26.5 0-48-21.5-48-48V192H416v.7zM432 512c79.5 0 144-64.5 144-144s-64.5-144-144-144s-144 64.5-144 144s64.5 144 144 144zm0-32c-30.2 0-57.5-11.9-77.7-31.3c6.2-19 24-32.7 45.1-32.7h65.2c21 0 38.9 13.7 45.1 32.7C489.5 468.1 462.2 480 432 480zm0-96c-26.5 0-48-21.5-48-48s21.5-48 48-48s48 21.5 48 48s-21.5 48-48 48z"/></svg>

<svg xmlns="http://www.w3.org/2000/svg" viewBox="0 0 576 512"><!--! Font Awesome Pro 6.1.2 by @fontawesome - https://fontawesome.com License - https://fontawesome.com/license (Commercial License) Copyright 2022 Fonticons, Inc. --><path d="M96 32C96 14.33 110.3 0 128 0C145.7 0 160 14.33 160 32V64H288V32C288 14.33 302.3 0 320 0C337.7 0 352 14.33 352 32V64H400C426.5 64 448 85.49 448 112V160H0V112C0 85.49 21.49 64 48 64H96V32zM416 192.7C326.3 200.8 256 276.2 256 368C256 427.5 285.6 480.1 330.8 512H48C21.49 512 0 490.5 0 464V192H416V192.7zM288 368C288 288.5 352.5 224 432 224C511.5 224 576 288.5 576 368C576 447.5 511.5 512 432 512C352.5 512 288 447.5 288 368zM432 480C462.2 480 489.5 468.1 509.7 448.7C503.5 429.7 485.6 416 464.6 416H399.4C378.4 416 360.5 429.7 354.3 448.7C374.5 468.1 401.8 480 432 480V480zM432 384C458.5 384 480 362.5 480 336C480 309.5 458.5 288 432 288C405.5 288 384 309.5 384 336C384 362.5 405.5 384 432 384z"/></svg>
